resources/haticons/SVG/directions_subway.svg

<!-- Generated by IcoMoon.io -->
<svg version="1.1" xmlns="http://www.w3.org/2000/svg" width="24" height="24" viewBox="0 0 24 24">
<title>directions_subway</title>
<path d="M18 11.016v-5.016h-5.016v5.016h5.016zM16.5 17.016q0.656 0 1.078-0.445t0.422-1.055-0.422-1.055-1.078-0.445-1.078 0.445-0.422 1.055 0.422 1.055 1.078 0.445zM11.016 11.016v-5.016h-5.016v5.016h5.016zM7.5 17.016q0.656 0 1.078-0.445t0.422-1.055-0.422-1.055-1.078-0.445-1.078 0.445-0.422 1.055 0.422 1.055 1.078 0.445zM12 2.016q3.891 0 5.953 0.797t2.063 3.188v9.516q0 1.453-1.031 2.461t-2.484 1.008l1.5 1.5v0.516h-12v-0.516l1.5-1.5q-1.453 0-2.484-1.008t-1.031-2.461v-9.516q0-2.391 2.063-3.188t5.953-0.797z"></path>
</svg>

<svg xmlns="http://www.w3.org/2000/svg" width="24" height="24"><path d="M18 11.016V6h-5.016v5.016H18zm-1.5 6q.656 0 1.078-.445T18 15.516t-.422-1.055-1.078-.445-1.078.445T15 15.516t.422 1.055 1.078.445zm-5.484-6V6H6v5.016h5.016zm-3.516 6q.656 0 1.078-.445T9 15.516t-.422-1.055-1.078-.445-1.078.445T6 15.516t.422 1.055 1.078.445zm4.5-15q3.891 0 5.953.797t2.063 3.188v9.516q0 1.453-1.031 2.461t-2.484 1.008l1.5 1.5v.516h-12v-.516l1.5-1.5q-1.453 0-2.484-1.008t-1.031-2.461V6.001q0-2.391 2.063-3.188t5.953-.797z"/></svg>
